Yosa-Max/actions/22x22/cdplayer-eject.svg

<?xml version="1.0" encoding="UTF-8"?>
<svg viewBox="0 0 22 22" xmlns="http://www.w3.org/2000/svg">
 <defs id="defs3051">
  <style id="current-color-scheme" type="text/css">.ColorScheme-Text {
        color:#4d4d4d;
      }</style>
 </defs>
 <path class="ColorScheme-Text" d="m11 5-7 8h14l-7-8zm-7 9.900391v2.099609h14v-2.099609h-14z" style="fill:currentColor"/>
</svg>

<svg xmlns="http://www.w3.org/2000/svg" viewBox="0 0 22 22">
  <defs id="defs3051">
    <style type="text/css" id="current-color-scheme">
      .ColorScheme-Text {
        color:#4d4d4d;
      }
      </style>
  </defs>
 <path 
    style="fill:currentColor;fill-opacity:1;stroke:none" 
    d="M 11 5 L 4 13 L 18 13 L 11 5 z M 4 14.900391 L 4 17 L 18 17 L 18 14.900391 L 4 14.900391 z "
    class="ColorScheme-Text"
    />  
</svg>
